src/assets/selectIcons/pergamena_2.svg

<svg xmlns="http://www.w3.org/2000/svg" viewBox="0 0 512 512"><path d="M0 0h512v512H0z"/><path fill="#fff" d="M103.432 17.844c-1.118.005-2.234.032-3.348.08-2.547.11-5.083.334-7.604.678-20.167 2.747-39.158 13.667-52.324 33.67-24.613 37.4 2.194 98.025 56.625 98.025.536 0 1.058-.012 1.583-.022v.704h60.565c-10.758 31.994-30.298 66.596-52.448 101.43-2.162 3.4-4.254 6.878-6.29 10.406l34.878 35.733-56.263 9.423c-32.728 85.966-27.42 182.074 48.277 182.074v-.002l9.31.066c23.83-.57 46.732-4.298 61.325-12.887 4.174-2.458 7.63-5.237 10.467-8.42h-32.446c-20.33 5.95-40.8-6.94-47.396-25.922-8.956-25.77 7.52-52.36 31.867-60.452 5.803-1.93 11.723-2.834 17.565-2.834v-.406h178.33c-.57-44.403 16.35-90.125 49.184-126 23.955-26.176 42.03-60.624 51.3-94.846l-41.225-24.932 38.272-6.906-43.37-25.807h-.005l.002-.002.002.002 52.127-8.85c-5.232-39.134-28.84-68.113-77.37-68.113C341.14 32.26 222.11 35.29 149.34 28.496c-14.888-6.763-30.547-10.723-45.908-10.652zm.464 18.703c13.137.043 27.407 3.804 41.247 10.63l.033-.07c4.667 4.735 8.542 9.737 11.68 14.985H82.92l10.574 14.78c10.608 14.83 19.803 31.99 21.09 42.024.643 5.017-.11 7.167-1.814 8.836-1.705 1.67-6.228 3.875-15.99 3.875-40.587 0-56.878-44.952-41.012-69.06C66.238 46.64 79.582 39.22 95.002 37.12c2.89-.395 5.863-.583 8.894-.573zM118.5 80.78h46.28c4.275 15.734 3.656 33.07-.544 51.51H131.52c1.9-5.027 2.268-10.574 1.6-15.77-1.527-11.913-7.405-24.065-14.62-35.74zm101.553 317.095c6.44 6.84 11.192 15.31 13.37 24.914 3.797 16.736 3.092 31.208-1.767 43.204-4.526 11.175-12.576 19.79-22.29 26h237.19c14.448 0 24.887-5.678 32.2-14.318 7.312-8.64 11.2-20.514 10.705-32.352-.186-4.473-.978-8.913-2.407-13.18l-69.91-8.205 42.017-20.528c-8.32-3.442-18.64-5.537-31.375-5.537H220.053zm-42.668.506c-1.152-.003-2.306.048-3.457.153-2.633.242-5.256.775-7.824 1.63-15.11 5.02-25.338 21.54-20.11 36.583 3.673 10.57 15.347 17.71 25.654 13.938l1.555-.57h43.354c.946-6.36.754-13.882-1.358-23.192-3.71-16.358-20.543-28.483-37.815-28.54z"/></svg>

<?xml version="1.0" encoding="UTF-8" standalone="no"?>
<!DOCTYPE svg PUBLIC "-//W3C//DTD SVG 1.1//EN" "http://www.w3.org/Graphics/SVG/1.1/DTD/svg11.dtd">
<svg width="100%" height="100%" viewBox="0 0 512 512" version="1.1" xmlns="http://www.w3.org/2000/svg" xmlns:xlink="http://www.w3.org/1999/xlink" xml:space="preserve" xmlns:serif="http://www.serif.com/" style="fill-rule:evenodd;clip-rule:evenodd;stroke-linejoin:round;stroke-miterlimit:2;">
    <rect x="0" y="0" width="512" height="512" style="fill-rule:nonzero;"/>
    <path d="M103.432,17.844C102.314,17.849 101.198,17.876 100.084,17.924C97.537,18.034 95.001,18.258 92.48,18.602C72.313,21.349 53.322,32.269 40.156,52.272C15.543,89.672 42.35,150.297 96.781,150.297C97.317,150.297 97.839,150.285 98.364,150.275L98.364,150.979L158.929,150.979C148.171,182.973 128.631,217.575 106.481,252.409C104.319,255.809 102.227,259.287 100.191,262.815L135.069,298.548L78.806,307.971C46.078,393.937 51.386,490.045 127.083,490.045L127.083,490.043L136.393,490.109C160.223,489.539 183.125,485.811 197.718,477.222C201.892,474.764 205.348,471.985 208.185,468.802L175.739,468.802C155.409,474.752 134.939,461.862 128.343,442.88C119.387,417.11 135.863,390.52 160.21,382.428C166.013,380.498 171.933,379.594 177.775,379.594L177.775,379.188L356.105,379.188C355.535,334.785 372.455,289.063 405.289,253.188C429.244,227.012 447.319,192.564 456.589,158.342L415.364,133.41L453.636,126.504L410.266,100.697L410.261,100.697L410.263,100.695L410.265,100.697L462.392,91.847C457.16,52.713 433.552,23.734 385.022,23.734C341.14,32.26 222.11,35.29 149.34,28.496C134.452,21.733 118.793,17.773 103.432,17.844ZM103.896,36.547C117.033,36.59 131.303,40.351 145.143,47.177L145.176,47.107C149.843,51.842 153.718,56.844 156.856,62.092L82.92,62.092L93.494,76.872C104.102,91.702 113.297,108.862 114.584,118.896C115.227,123.913 114.474,126.063 112.77,127.732C111.065,129.402 106.542,131.607 96.78,131.607C56.193,131.607 39.902,86.655 55.768,62.547C66.238,46.64 79.582,39.22 95.002,37.12C97.892,36.725 100.865,36.537 103.896,36.547ZM118.5,80.78L164.78,80.78C169.055,96.514 168.436,113.85 164.236,132.29L131.52,132.29C133.42,127.263 133.788,121.716 133.12,116.52C131.593,104.607 125.715,92.455 118.5,80.78ZM220.053,397.875C226.493,404.715 231.245,413.185 233.423,422.789C237.22,439.525 236.515,453.997 231.656,465.993C227.13,477.168 219.08,485.783 209.366,491.993L446.556,491.993C461.004,491.993 471.443,486.315 478.756,477.675C486.068,469.035 489.956,457.161 489.461,445.323C489.275,440.85 488.483,436.41 487.054,432.143L417.144,423.938L459.161,403.41C450.841,399.968 440.521,397.873 427.786,397.873L220.053,397.873L220.053,397.875ZM177.385,398.381C176.233,398.378 175.079,398.429 173.928,398.534C171.295,398.776 168.672,399.309 166.104,400.164C150.994,405.184 140.766,421.704 145.994,436.747C149.667,447.317 161.341,454.457 171.648,450.685L173.203,450.115L216.557,450.115C217.503,443.755 217.311,436.233 215.199,426.923C211.489,410.565 194.656,398.44 177.384,398.383L177.385,398.381Z" style="fill:rgb(211,179,117);fill-rule:nonzero;"/>
</svg>
